!!!SOCIAL_FUNCTION:	songs of the drum-presentation ceremony
!!!PDT:	1913
!!!OTL: No_58_Song_of_the_Warriors.krn
!!!REG: Great_Lakes
!!!LANG: Non-Tone
!!!LING_GROUP: Algonquin
**kern	**kern
*staff2	*staff1
=1-	=1-
*clefF4	*clefF4
*k[b-e-a-d-g-c-]	*k[b-e-a-d-g-c-]
*M2/4	*M2/4
4GG-^/	2e-\
4GG-^/	.
=2	=2
4GG-^/	4e-\
4GG-^/	16d-\LK
.	8.d-\J
=3||	=3||
*M3/4	*M3/4
2.r	[2d-\
.	(8d-\L]
.	8B-\J)
=4||	=4||
*M2/4	*M2/4
2r	2e-\
=5	=5
2r	4e-\
.	16d-\LK
.	8.d-\J
=6||	=6||
*M3/4	*M3/4
2.r	2.d-\
=7!|:	=7!|:
*M2/4	*M2/4
2r	2d-\
=8	=8
2r	4d-\
.	4A-\
=9	=9
2r	4G-\
.	8G-\L
.	8G-\J
=10	=10
2r	4G-\
.	4E-\
=11	=11
2r	4D-\
.	8D-\L
.	8D-\J
=12	=12
2r	4E-\
.	8D-\L
.	8D-\J
=13	=13
2r	[2D-\
=14	=14
2r	2D-\]
==:|!	==:|!
*-	*-
